X:1
T:Ode to Joy
T:Ode to Joy
T:Final of the Ninth Symphony
T:L. van Beethoven
T:F.Schiller
C:L. van Beethoven
Z:F.Schiller
%%score { 1 | 2 }
L:1/8
M:4/4
K:C
V:1 treble nm="Piano" snm="Pno."
V:2 bass 
V:1
 E2 E2 F2 G2 | G2 F2 E2 D2 | C2 C2 D2 E2 | E3 D D4 | E2 E2 F2 G2 | G2 F2 E2 D2 | C2 C2 D2 E2 | %7
 D3 C C4 | D4 E2 C2 | z8 | D2 EF E2 D2 | C2 D2 z4 | E2 E2 F2 G2 | G2 F2 E2 D2 | C2 C2 D2 E2 | %15
 D3 C C4 |] %16
V:2
 [C,E,G,]8 | [F,G,]8 | [C,E,G,]8 | G,8 | [C,E,G,]8 | [F,G,]8 | [C,E,G,]8 | G,4 [C,E,G,]4 | z8 | %9
 D,2 E,F, E,2 C,2 | z8 | z4 G,4 | [C,E,G,]8 | [F,G,]8 | [C,E,G,]8 | G,4 [C,E,G,]4 |] %16

